X: 102
T: the FIRST OF Jan.r.y 1812
T: the First of January 1812
C: J Reeve
%R: jig
B: J.Gray's Twenty four Country Dances (for the Year 1812) p.10 #2
S: http://www.eatmt.org.uk/gray_1812.htm 2014-8-7
Z: 2014 John Chambers <jc:trillian.mit.edu>
M: 6/8
L: 1/8
K: A
c/d/ !segno!|\
eca eca | (aB)B ~B2c | dcd fdB | (A3 G2)c/d/ |\
eca eca | (aB)B ~B2c | dcd efg | aaa a2 |]
a |\
aBB B2d | (dc)c ~c2a | acc ~c2e | (ed)d ~d2d |\
(dc).d (ed).e | (fe).f (gf).g | aec (ed).B | AAA A2 |]
"Fluto."[AA,] |\
[A2A,2][cC] [c2C2][eE] | [e3E3] [a2A2][fF] |\
[eE][aA][fF] [eE][aA][fF] | [fF][eE][eE] [e2E2][AA,] |\
[A2A,2][dD] [d2D2][fF] | [f3F3] [a2A2][aA] |\
[gG][fF][eE] [eE][fF][^d^D] | [eE][fF][gG] [aA][bB][c'/c/]"_D.C."[d'/d/] !segno!|]
% - - - - - - - - - - - - - - - - - - - - - - - - -
%%begintext align
%% 1st Lady & 2d Gent. change places D.o do same
%% down mid. up again pousette Right & Left.
%%endtext
% - - - - - - - - - - - - - - - - - - - - - - - - -
